X:1
T:Charakteristischer Name: Menuett à quatre; Menuet de la chaine
T:Charakteristischer Name: Menuett à quatre; Menuet de la chaine
T:[ID 1-65] Bezeichnung standardisiert: Menuett [Sammelbezeichnung]; Menuet de Cater Nr. 1 \"Ahnlich in dieser Quelle: ID 2-7a (anm. S. Wascher);
T:Urheber unbekannt Erstbeleg: <1767 (Schlussfolgerung) Datum in der hier transkribierten Quelle: 1775
C:Urheber unbekannt
C:Erstbeleg: <1767 (Schlussfolgerung)
C:Datum in der hier transkribierten Quelle: 1775
L:1/8
M:3/4
K:C
V:1 treble 
V:1
 FEF^cde | f3 e f2 | g2 f2 e2 | fgfedA | FEF^cde | f3 e f2 | g2 f2 ed |"^[sic]" c6 :: fe f2 gf | %9
 e3 dcd | ed e2 f2 | d4 A2 | FEF^cde | cBcdef | g2 f2 e"^1)" x | c6 | fe f2 gf | e3 dcd | %18
 ed e2 f2 | d4 A2 | FEF^cde | cBcd"^1)" x x | defcGE | F6 :| %24

